!!!COM: Brahms, Johannes
!!!OTL: Waltz in E Major, Op.39 No.2
!!!ODT: 1865
!!!PDT: 1867
!!!OPS: Op. 39
!!!ONM: No. 2
!!!SCT: Piston 107
!!!ONB: Incorrectly labeled Op. 39, No. 1 in the book.
!!!citation: Harmony by Walter Piston.  W.W.Norton: New York; 1941.
!!!label: Ex. 107.  Brahms -- <i>Waltz, op. 39, no. 2</i>
!!!chapter: Chapter 6 (Harmonic Structure of Phrase)
!!!page: 59
!!!ENC: Craig Stuart Sapp
**kern	**kern	**root	**harm
*clefF4	*clefG2	*	*
*k[f#c#g#d#]	*k[f#c#g#d#]	*k[f#c#g#d#]	*k[f#c#g#d#]
*E:	*E:	*E:	*E:
*M3/4	*M3/4	*M3/4	*M3/4
*MM172	*MM172	*MM172	*MM172
*^	*	*	*
=18	=18	=18	=18	=18
2.EE: 2.BB:	8r	4.g# 4.b	2.EE	I
.	8G# 8B	.	.	.
.	4G# 4B	.	.	.
.	.	8b 8bb	.	.
.	4G# 4e	4b 4ee 4bb	.	.
=19	=19	=19	=19	=19
2.FF#: 2.BB:	8r	4.a 4.dd# 4.aa	2.BB	V7c
.	8A 8B	.	.	.
.	4A 4B	.	.	.
.	.	8b 8bb	.	.
.	4A 4d#	4b 4dd# 4bb	.	.
=20	=20	=20	=20	=20
2.EE: 2.BB:	8r	4.g# 4.ee 4.gg#	2.BB	I
.	8G# 8B	.	.	.
.	4G# 4B	.	.	.
.	.	8b 8bb	.	.
.	4G# 4g#	4ee 4bb 4eee	.	.
=21	=21	=21	=21	=21
2.BBB: 2.BB:	8r	4.dd# 4.aa 4.ddd#	2.BB	V9
.	8A 8f#	.	.	.
.	4A 4f#	.	.	.
.	.	8cc# 8ccc#	.	.
.	4B 4d#	4a 4ff# 4aa	.	.
=22	=22	=22	=22	=22
2.EE: 2.BB:	8r	4.g# 4.ee 4.gg#	2.EE	I
.	8G# 8B	.	.	.
.	4G# 4B	.	.	.
.	.	8b 8bb	.	.
.	4G# 4e	4b 4gg# 4bb	.	.
=23	=23	=23	=23	=23
2.DD#: 2.BB:	8r	4.b 4.gg# 4.bb	2.BB	V7b
.	8G# 8B	.	.	.
.	4G# 4B	.	.	.
.	.	8gg# 8ggg#	.	.
.	4G# 4g#	4gg# 4bb 4ggg#	.	.
=24	=24	=24	=24	=24
4BBB 4BB	2.ryy	8b 8bb	4EE	Ic
.	.	8gg# 8ggg#	.	.
4A 4c# 4f#	.	4aa 4ccc# 4aaa	4FF#	Vb/V
*	*	*^	*	*
4BB 4F# 4B	.	4dd# 4ddd#	8bb	4BB	V7
.	.	.	8aa	.	.
*	*	*v	*v	*	*
=25	=25	=25	=25	=25
4EE 4BB	2.ryy	2ee 2gg# 2eee	2.EE	I
4E 4G# 4B	.	.	.	.
4r	.	4r	.	.
==	==	==	==	==
*v	*v	*	*	*
*-	*-	*-	*-
